Newaita-dark/apps/64/messengerfordesktop.svg

<svg height="64" viewBox="0 0 64 64" width="64" xmlns="http://www.w3.org/2000/svg" xmlns:xlink="http://www.w3.org/1999/xlink"><linearGradient id="a"><stop offset="0" stop-opacity=".313726"/><stop offset=".222222" stop-opacity=".27451"/><stop offset="1" stop-opacity="0"/></linearGradient><radialGradient id="b" cx="450.908936" cy="189.579361" gradientTransform="matrix(.00000035 -.156265 -.281277 -.0000002 85.738698 127.190659)" gradientUnits="userSpaceOnUse" r="21.166656" xlink:href="#a"/><radialGradient id="c" cx="450.908936" cy="189.579361" gradientTransform="matrix(-.00000035 .156265 .281277 .0000002 -42.078271 -15.054964)" gradientUnits="userSpaceOnUse" r="21.166656" xlink:href="#a"/><radialGradient id="d" cx="450.908936" cy="189.579361" gradientTransform="matrix(-.00000035 -.156265 .281277 -.0000002 -42.078271 127.190659)" gradientUnits="userSpaceOnUse" r="21.166656" xlink:href="#a"/><radialGradient id="e" cx="450.908936" cy="189.579361" gradientTransform="matrix(.00000035 .156265 -.281277 .0000002 85.73869 -15.054965)" gradientUnits="userSpaceOnUse" r="21.166656" xlink:href="#a"/><linearGradient id="f" gradientTransform="matrix(.0648917 0 0 .125012 5.261863 26.877567)" gradientUnits="userSpaceOnUse" x1="255.323059" x2="255.323044" y1="233.5" y2="254.666656"><stop offset="0" stop-opacity=".27451"/><stop offset="1" stop-opacity="0"/></linearGradient><linearGradient id="g"><stop offset="0" stop-color="#82b1ff"/><stop offset="1" stop-color="#448aff"/></linearGradient><linearGradient id="h" gradientUnits="userSpaceOnUse" x1="126.656886" x2="126.656886" xlink:href="#g" y1="148.833328" y2="233.5"/><linearGradient id="i" gradientUnits="userSpaceOnUse" x1="254" x2="254" xlink:href="#g" y1="-168.666672" y2="233.5"/><linearGradient id="j"><stop offset="0" stop-color="#e0e0e0"/><stop offset="1" stop-color="#f5f5f5"/></linearGradient><linearGradient id="k" gradientTransform="matrix(.125012 0 0 -.125012 0 34.982507)" gradientUnits="userSpaceOnUse" x1="254" x2="254" xlink:href="#j" y1=".666667" y2="64.166664"/><linearGradient id="l" gradientTransform="matrix(.125012 0 0 -.125012 11.907387 34.982507)" gradientUnits="userSpaceOnUse" x1="254" x2="254" xlink:href="#j" y1=".666667" y2="64.166664"/><linearGradient id="m" gradientTransform="matrix(.125012 0 0 -.125012 -11.907387 34.982507)" gradientUnits="userSpaceOnUse" x1="254" x2="254" xlink:href="#j" y1=".666667" y2="64.166664"/><path d="m33.074219 56.066406h5.292969v-2.644531h-5.292969zm0 0" fill="url(#b)"/><path d="m10.585938 56.066406h-5.292969v2.648438h5.292969zm0 0" fill="url(#c)"/><path d="m10.585938 56.066406h-5.292969v-2.644531h5.292969zm0 0" fill="url(#d)"/><path d="m33.074219 56.066406h5.292969v2.648438h-5.292969zm0 0" fill="url(#e)"/><path d="m10.585938 55.40625h22.488281v3.308594h-22.488281zm0 0" fill="url(#f)"/><path d="m126.987873 148.840255c-2.624749-.093741-5.218251.812422-7.21806 2.531008l-74.086676 63.525184c-7.436789 6.374391-2.937219 18.591974 6.905591 18.591974h211.63604c11.342667 0 14.748591-15.436025 4.437076-20.185572l-137.580612-63.493937c-1.281127-.593693-2.655996-.906163-4.093359-.968657zm0 0" style="fill-rule:evenodd;stroke-width:3;stroke-linecap:round;stroke-linejoin:round;stroke:#212121;fill:url(#h)" transform="matrix(.125012 0 0 .125012 0 26.877566)"/><path d="m254.006994-168.660675c111.051895 0 201.074548 90.022653 201.074548 201.074548s-90.022653 201.074548-201.074548 201.074548c-111.051896 0-201.105796-90.022653-201.105796-201.074548s90.0539-201.074548 201.105796-201.074548zm0 0" fill="url(#i)" stroke="#333" stroke-linecap="round" stroke-width="3" transform="matrix(.125012 0 0 .125012 0 26.877566)"/><path d="m31.753906 56.066406c-13.925781 0-25.140625-11.210937-25.140625-25.136718 0-.082032.003907-.164063.003907-.246094.128906 13.8125 11.292968 24.890625 25.136718 24.890625s25.003906-11.078125 25.136719-24.890625v.246094c0 13.925781-11.210937 25.136718-25.136719 25.136718zm0 0" fill-opacity=".196078"/><path d="m31.753906 5.792969c-13.925781 0-25.140625 11.210937-25.140625 25.136719 0 .082031.003907.164062.003907.246093.128906-13.8125 11.292968-24.890625 25.136718-24.890625s25.003906 11.078125 25.136719 24.890625c0-.082031 0-.164062 0-.246093 0-13.925782-11.210937-25.136719-25.136719-25.136719zm0 0" fill="#fff" fill-opacity=".392157"/><path d="m31.753906 5.605469c-14.027344 0-25.328125 11.296875-25.328125 25.324219 0 14.027343 11.300781 25.324218 25.328125 25.324218s25.324219-11.296875 25.324219-25.324218c0-14.027344-11.296875-25.324219-25.324219-25.324219zm0 .375c13.824219 0 24.949219 11.125 24.949219 24.949219 0 13.824218-11.125 24.949218-24.949219 24.949218-13.828125 0-24.953125-11.125-24.953125-24.949218 0-13.824219 11.125-24.949219 24.953125-24.949219zm0 0" fill="#212121"/><path d="m31.753906 34.898438c2.191406 0 3.96875-1.777344 3.96875-3.96875 0-2.191407-1.777344-3.96875-3.96875-3.96875s-3.96875 1.777343-3.96875 3.96875c0 2.191406 1.777344 3.96875 3.96875 3.96875zm0 0" fill="url(#k)"/><path d="m43.660156 34.898438c2.191406 0 3.96875-1.777344 3.96875-3.96875 0-2.191407-1.777344-3.96875-3.96875-3.96875s-3.96875 1.777343-3.96875 3.96875c0 2.191406 1.777344 3.96875 3.96875 3.96875zm0 0" fill="url(#l)"/><path d="m19.84375 34.898438c2.195312 0 3.972656-1.777344 3.972656-3.96875 0-2.191407-1.777344-3.96875-3.972656-3.96875-2.191406 0-3.96875 1.777343-3.96875 3.96875 0 2.191406 1.777344 3.96875 3.96875 3.96875zm0 0" fill="url(#m)"/><path d="m31.753906 26.960938c-2.199218 0-3.96875 1.769531-3.96875 3.96875 0 .167968.007813.335937.03125.496093.242188-1.960937 1.90625-3.472656 3.9375-3.472656s3.695313 1.511719 3.9375 3.472656c.019532-.160156.03125-.328125.03125-.496093 0-2.199219-1.769531-3.96875-3.96875-3.96875zm0 0" fill="#fcfcfc"/><path d="m43.660156 26.960938c-2.199218 0-3.96875 1.769531-3.96875 3.96875 0 .167968.011719.335937.03125.496093.242188-1.960937 1.90625-3.472656 3.9375-3.472656s3.695313 1.511719 3.9375 3.472656c.019532-.160156.03125-.328125.03125-.496093 0-2.199219-1.769531-3.96875-3.96875-3.96875zm0 0" fill="#fcfcfc"/><path d="m19.84375 26.960938c-2.195312 0-3.96875 1.769531-3.96875 3.96875 0 .167968.011719.335937.03125.496093.242188-1.960937 1.910156-3.472656 3.9375-3.472656 2.03125 0 3.699219 1.511719 3.941406 3.472656.019532-.160156.03125-.328125.03125-.496093 0-2.199219-1.773437-3.96875-3.972656-3.96875zm0 0" fill="#fcfcfc"/><path d="m27.839844 31.589844c-.035156.214844-.054688.4375-.054688.664062 0 2.199219 1.769532 3.96875 3.96875 3.96875 2.199219 0 3.96875-1.769531 3.96875-3.96875 0-.226562-.019531-.449218-.054687-.664062-.3125 1.882812-1.941407 3.308594-3.914063 3.308594s-3.601562-1.425782-3.914062-3.308594zm0 0" fill-opacity=".235294"/><path d="m39.746094 31.589844c-.035156.214844-.054688.4375-.054688.664062 0 2.199219 1.769532 3.96875 3.96875 3.96875 2.199219 0 3.96875-1.769531 3.96875-3.96875 0-.226562-.019531-.449218-.054687-.664062-.3125 1.882812-1.941407 3.308594-3.914063 3.308594s-3.601562-1.425782-3.914062-3.308594zm0 0" fill-opacity=".235294"/><path d="m15.929688 31.589844c-.035157.214844-.054688.4375-.054688.664062 0 2.199219 1.773438 3.96875 3.96875 3.96875 2.199219 0 3.972656-1.769531 3.972656-3.96875 0-.226562-.019531-.449218-.054687-.664062-.316407 1.882812-1.941407 3.308594-3.917969 3.308594-1.972656 0-3.597656-1.425782-3.914062-3.308594zm0 0" fill-opacity=".235294"/><g stroke="#212121" stroke-linecap="round" stroke-linejoin="round" stroke-width="3"><path d="m254.006994-64.160841c17.529576 0 31.746968 14.217392 31.746968 31.746968s-14.217392 31.746968-31.746968 31.746968-31.746969-14.217392-31.746969-31.746968 14.217393-31.746968 31.746969-31.746968zm0 0" fill="none" transform="matrix(.125012 0 0 -.125012 0 26.877566)"/><path d="m349.247898-64.160841c17.529577 0 31.746969 14.217392 31.746969 31.746968s-14.217392 31.746968-31.746969 31.746968c-17.529576 0-31.746968-14.217392-31.746968-31.746968s14.217392-31.746968 31.746968-31.746968zm0 0" fill="none" transform="matrix(.125012 0 0 -.125012 0 26.877566)"/><path d="m158.734842-64.160841c17.560823 0 31.778215 14.217392 31.778215 31.746968s-14.217392 31.746968-31.778215 31.746968c-17.529576 0-31.746969-14.217392-31.746969-31.746968s14.217393-31.746968 31.746969-31.746968zm0 0" fill="none" transform="matrix(.125012 0 0 -.125012 0 26.877566)"/></g></svg>

<?xml version="1.0" encoding="UTF-8"?>
<svg xmlns="http://www.w3.org/2000/svg" xmlns:xlink="http://www.w3.org/1999/xlink" width="64px" height="64px" viewBox="0 0 64 64" version="1.1">
<defs>
<radialGradient id="radial0" gradientUnits="userSpaceOnUse" cx="450.908936" cy="189.579361" fx="450.908936" fy="189.579361" r="21.166656" gradientTransform="matrix(0.000000348341,-0.156265,-0.281277,-0.000000203077,85.738698,127.190659)">
<stop offset="0" style="stop-color:rgb(0%,0%,0%);stop-opacity:0.313726;"/>
<stop offset="0.222222" style="stop-color:rgb(0%,0%,0%);stop-opacity:0.27451;"/>
<stop offset="1" style="stop-color:rgb(0%,0%,0%);stop-opacity:0;"/>
</radialGradient>
<radialGradient id="radial1" gradientUnits="userSpaceOnUse" cx="450.908936" cy="189.579361" fx="450.908936" fy="189.579361" r="21.166656" gradientTransform="matrix(-0.000000348341,0.156265,0.281277,0.000000203077,-42.078271,-15.054964)">
<stop offset="0" style="stop-color:rgb(0%,0%,0%);stop-opacity:0.313726;"/>
<stop offset="0.222222" style="stop-color:rgb(0%,0%,0%);stop-opacity:0.27451;"/>
<stop offset="1" style="stop-color:rgb(0%,0%,0%);stop-opacity:0;"/>
</radialGradient>
<radialGradient id="radial2" gradientUnits="userSpaceOnUse" cx="450.908936" cy="189.579361" fx="450.908936" fy="189.579361" r="21.166656" gradientTransform="matrix(-0.000000348341,-0.156265,0.281277,-0.000000203077,-42.078271,127.190659)">
<stop offset="0" style="stop-color:rgb(0%,0%,0%);stop-opacity:0.313726;"/>
<stop offset="0.222222" style="stop-color:rgb(0%,0%,0%);stop-opacity:0.27451;"/>
<stop offset="1" style="stop-color:rgb(0%,0%,0%);stop-opacity:0;"/>
</radialGradient>
<radialGradient id="radial3" gradientUnits="userSpaceOnUse" cx="450.908936" cy="189.579361" fx="450.908936" fy="189.579361" r="21.166656" gradientTransform="matrix(0.000000348341,0.156265,-0.281277,0.000000203077,85.73869,-15.054965)">
<stop offset="0" style="stop-color:rgb(0%,0%,0%);stop-opacity:0.313726;"/>
<stop offset="0.222222" style="stop-color:rgb(0%,0%,0%);stop-opacity:0.27451;"/>
<stop offset="1" style="stop-color:rgb(0%,0%,0%);stop-opacity:0;"/>
</radialGradient>
<linearGradient id="linear0" gradientUnits="userSpaceOnUse" x1="255.323059" y1="233.5" x2="255.323044" y2="254.666656" gradientTransform="matrix(0.0648917,0,0,0.125012,5.261863,26.877567)">
<stop offset="0" style="stop-color:rgb(0%,0%,0%);stop-opacity:0.27451;"/>
<stop offset="1" style="stop-color:rgb(0%,0%,0%);stop-opacity:0;"/>
</linearGradient>
<linearGradient id="linear1" gradientUnits="userSpaceOnUse" x1="116.416656" y1="148.833328" x2="116.416656" y2="233.5" gradientTransform="matrix(1,0,0,1,10.24023,0)">
<stop offset="0" style="stop-color:rgb(50.980395%,69.411767%,100%);stop-opacity:1;"/>
<stop offset="1" style="stop-color:rgb(26.666668%,54.11765%,100%);stop-opacity:1;"/>
</linearGradient>
<linearGradient id="linear2" gradientUnits="userSpaceOnUse" x1="254" y1="-168.666672" x2="254" y2="233.5" >
<stop offset="0" style="stop-color:rgb(50.980395%,69.411767%,100%);stop-opacity:1;"/>
<stop offset="1" style="stop-color:rgb(26.666668%,54.11765%,100%);stop-opacity:1;"/>
</linearGradient>
<linearGradient id="linear3" gradientUnits="userSpaceOnUse" x1="254" y1="0.666667" x2="254" y2="64.166664" gradientTransform="matrix(0.125012,0,0,-0.125012,0,34.982507)">
<stop offset="0" style="stop-color:rgb(87.843138%,87.843138%,87.843138%);stop-opacity:1;"/>
<stop offset="1" style="stop-color:rgb(96.078432%,96.078432%,96.078432%);stop-opacity:1;"/>
</linearGradient>
<linearGradient id="linear4" gradientUnits="userSpaceOnUse" x1="254" y1="0.666667" x2="254" y2="64.166664" gradientTransform="matrix(0.125012,0,0,-0.125012,11.907387,34.982507)">
<stop offset="0" style="stop-color:rgb(87.843138%,87.843138%,87.843138%);stop-opacity:1;"/>
<stop offset="1" style="stop-color:rgb(96.078432%,96.078432%,96.078432%);stop-opacity:1;"/>
</linearGradient>
<linearGradient id="linear5" gradientUnits="userSpaceOnUse" x1="254" y1="0.666667" x2="254" y2="64.166664" gradientTransform="matrix(0.125012,0,0,-0.125012,-11.907387,34.982507)">
<stop offset="0" style="stop-color:rgb(87.843138%,87.843138%,87.843138%);stop-opacity:1;"/>
<stop offset="1" style="stop-color:rgb(96.078432%,96.078432%,96.078432%);stop-opacity:1;"/>
</linearGradient>
</defs>
<g id="surface1">
<path style=" stroke:none;fill-rule:nonzero;fill:url(#radial0);" d="M 33.074219 56.066406 L 38.367188 56.066406 L 38.367188 53.421875 L 33.074219 53.421875 Z M 33.074219 56.066406 "/>
<path style=" stroke:none;fill-rule:nonzero;fill:url(#radial1);" d="M 10.585938 56.066406 L 5.292969 56.066406 L 5.292969 58.714844 L 10.585938 58.714844 Z M 10.585938 56.066406 "/>
<path style=" stroke:none;fill-rule:nonzero;fill:url(#radial2);" d="M 10.585938 56.066406 L 5.292969 56.066406 L 5.292969 53.421875 L 10.585938 53.421875 Z M 10.585938 56.066406 "/>
<path style=" stroke:none;fill-rule:nonzero;fill:url(#radial3);" d="M 33.074219 56.066406 L 38.367188 56.066406 L 38.367188 58.714844 L 33.074219 58.714844 Z M 33.074219 56.066406 "/>
<path style=" stroke:none;fill-rule:nonzero;fill:url(#linear0);" d="M 10.585938 55.40625 L 33.074219 55.40625 L 33.074219 58.714844 L 10.585938 58.714844 Z M 10.585938 55.40625 "/>
<path style="fill-rule:evenodd;fill:url(#linear1);stroke-width:3;stroke-linecap:round;stroke-linejoin:round;stroke:rgb(12.941177%,12.941177%,12.941177%);stroke-opacity:1;stroke-miterlimit:4;" d="M 126.987873 148.840255 C 124.363124 148.746514 121.769622 149.652677 119.769813 151.371263 L 45.683137 214.896447 C 38.246348 221.270838 42.745918 233.488421 52.588728 233.488421 L 264.224768 233.488421 C 275.567435 233.488421 278.973359 218.052396 268.661844 213.302849 L 131.081232 149.808912 C 129.800105 149.215219 128.425236 148.902749 126.987873 148.840255 Z M 126.987873 148.840255 " transform="matrix(0.125012,0,0,0.125012,0,26.877566)"/>
<path style="fill-rule:nonzero;fill:url(#linear2);stroke-width:3;stroke-linecap:round;stroke-linejoin:miter;stroke:rgb(20%,20%,20%);stroke-opacity:1;stroke-miterlimit:4;" d="M 254.006994 -168.660675 C 365.058889 -168.660675 455.081542 -78.638022 455.081542 32.413873 C 455.081542 143.465768 365.058889 233.488421 254.006994 233.488421 C 142.955098 233.488421 52.901198 143.465768 52.901198 32.413873 C 52.901198 -78.638022 142.955098 -168.660675 254.006994 -168.660675 Z M 254.006994 -168.660675 " transform="matrix(0.125012,0,0,0.125012,0,26.877566)"/>
<path style=" stroke:none;fill-rule:nonzero;fill:rgb(0%,0%,0%);fill-opacity:0.196078;" d="M 31.753906 56.066406 C 17.828125 56.066406 6.613281 44.855469 6.613281 30.929688 C 6.613281 30.847656 6.617188 30.765625 6.617188 30.683594 C 6.746094 44.496094 17.910156 55.574219 31.753906 55.574219 C 45.597656 55.574219 56.757812 44.496094 56.890625 30.683594 C 56.890625 30.765625 56.890625 30.847656 56.890625 30.929688 C 56.890625 44.855469 45.679688 56.066406 31.753906 56.066406 Z M 31.753906 56.066406 "/>
<path style=" stroke:none;fill-rule:nonzero;fill:rgb(100%,100%,100%);fill-opacity:0.392157;" d="M 31.753906 5.792969 C 17.828125 5.792969 6.613281 17.003906 6.613281 30.929688 C 6.613281 31.011719 6.617188 31.09375 6.617188 31.175781 C 6.746094 17.363281 17.910156 6.285156 31.753906 6.285156 C 45.597656 6.285156 56.757812 17.363281 56.890625 31.175781 C 56.890625 31.09375 56.890625 31.011719 56.890625 30.929688 C 56.890625 17.003906 45.679688 5.792969 31.753906 5.792969 Z M 31.753906 5.792969 "/>
<path style=" stroke:none;fill-rule:nonzero;fill:rgb(12.941177%,12.941177%,12.941177%);fill-opacity:1;" d="M 31.753906 5.605469 C 17.726562 5.605469 6.425781 16.902344 6.425781 30.929688 C 6.425781 44.957031 17.726562 56.253906 31.753906 56.253906 C 45.78125 56.253906 57.078125 44.957031 57.078125 30.929688 C 57.078125 16.902344 45.78125 5.605469 31.753906 5.605469 Z M 31.753906 5.980469 C 45.578125 5.980469 56.703125 17.105469 56.703125 30.929688 C 56.703125 44.753906 45.578125 55.878906 31.753906 55.878906 C 17.925781 55.878906 6.800781 44.753906 6.800781 30.929688 C 6.800781 17.105469 17.925781 5.980469 31.753906 5.980469 Z M 31.753906 5.980469 "/>
<path style=" stroke:none;fill-rule:nonzero;fill:url(#linear3);" d="M 31.753906 34.898438 C 33.945312 34.898438 35.722656 33.121094 35.722656 30.929688 C 35.722656 28.738281 33.945312 26.960938 31.753906 26.960938 C 29.5625 26.960938 27.785156 28.738281 27.785156 30.929688 C 27.785156 33.121094 29.5625 34.898438 31.753906 34.898438 Z M 31.753906 34.898438 "/>
<path style=" stroke:none;fill-rule:nonzero;fill:url(#linear4);" d="M 43.660156 34.898438 C 45.851562 34.898438 47.628906 33.121094 47.628906 30.929688 C 47.628906 28.738281 45.851562 26.960938 43.660156 26.960938 C 41.46875 26.960938 39.691406 28.738281 39.691406 30.929688 C 39.691406 33.121094 41.46875 34.898438 43.660156 34.898438 Z M 43.660156 34.898438 "/>
<path style=" stroke:none;fill-rule:nonzero;fill:url(#linear5);" d="M 19.84375 34.898438 C 22.039062 34.898438 23.816406 33.121094 23.816406 30.929688 C 23.816406 28.738281 22.039062 26.960938 19.84375 26.960938 C 17.652344 26.960938 15.875 28.738281 15.875 30.929688 C 15.875 33.121094 17.652344 34.898438 19.84375 34.898438 Z M 19.84375 34.898438 "/>
<path style=" stroke:none;fill-rule:nonzero;fill:rgb(98.823529%,98.823529%,98.823529%);fill-opacity:1;" d="M 31.753906 26.960938 C 29.554688 26.960938 27.785156 28.730469 27.785156 30.929688 C 27.785156 31.097656 27.792969 31.265625 27.816406 31.425781 C 28.058594 29.464844 29.722656 27.953125 31.753906 27.953125 C 33.785156 27.953125 35.449219 29.464844 35.691406 31.425781 C 35.710938 31.265625 35.722656 31.097656 35.722656 30.929688 C 35.722656 28.730469 33.953125 26.960938 31.753906 26.960938 Z M 31.753906 26.960938 "/>
<path style=" stroke:none;fill-rule:nonzero;fill:rgb(98.823529%,98.823529%,98.823529%);fill-opacity:1;" d="M 43.660156 26.960938 C 41.460938 26.960938 39.691406 28.730469 39.691406 30.929688 C 39.691406 31.097656 39.703125 31.265625 39.722656 31.425781 C 39.964844 29.464844 41.628906 27.953125 43.660156 27.953125 C 45.691406 27.953125 47.355469 29.464844 47.597656 31.425781 C 47.617188 31.265625 47.628906 31.097656 47.628906 30.929688 C 47.628906 28.730469 45.859375 26.960938 43.660156 26.960938 Z M 43.660156 26.960938 "/>
<path style=" stroke:none;fill-rule:nonzero;fill:rgb(98.823529%,98.823529%,98.823529%);fill-opacity:1;" d="M 19.84375 26.960938 C 17.648438 26.960938 15.875 28.730469 15.875 30.929688 C 15.875 31.097656 15.886719 31.265625 15.90625 31.425781 C 16.148438 29.464844 17.816406 27.953125 19.84375 27.953125 C 21.875 27.953125 23.542969 29.464844 23.785156 31.425781 C 23.804688 31.265625 23.816406 31.097656 23.816406 30.929688 C 23.816406 28.730469 22.042969 26.960938 19.84375 26.960938 Z M 19.84375 26.960938 "/>
<path style=" stroke:none;fill-rule:nonzero;fill:rgb(0%,0%,0%);fill-opacity:0.235294;" d="M 27.839844 31.589844 C 27.804688 31.804688 27.785156 32.027344 27.785156 32.253906 C 27.785156 34.453125 29.554688 36.222656 31.753906 36.222656 C 33.953125 36.222656 35.722656 34.453125 35.722656 32.253906 C 35.722656 32.027344 35.703125 31.804688 35.667969 31.589844 C 35.355469 33.472656 33.726562 34.898438 31.753906 34.898438 C 29.78125 34.898438 28.152344 33.472656 27.839844 31.589844 Z M 27.839844 31.589844 "/>
<path style=" stroke:none;fill-rule:nonzero;fill:rgb(0%,0%,0%);fill-opacity:0.235294;" d="M 39.746094 31.589844 C 39.710938 31.804688 39.691406 32.027344 39.691406 32.253906 C 39.691406 34.453125 41.460938 36.222656 43.660156 36.222656 C 45.859375 36.222656 47.628906 34.453125 47.628906 32.253906 C 47.628906 32.027344 47.609375 31.804688 47.574219 31.589844 C 47.261719 33.472656 45.632812 34.898438 43.660156 34.898438 C 41.6875 34.898438 40.058594 33.472656 39.746094 31.589844 Z M 39.746094 31.589844 "/>
<path style=" stroke:none;fill-rule:nonzero;fill:rgb(0%,0%,0%);fill-opacity:0.235294;" d="M 15.929688 31.589844 C 15.894531 31.804688 15.875 32.027344 15.875 32.253906 C 15.875 34.453125 17.648438 36.222656 19.84375 36.222656 C 22.042969 36.222656 23.816406 34.453125 23.816406 32.253906 C 23.816406 32.027344 23.796875 31.804688 23.761719 31.589844 C 23.445312 33.472656 21.820312 34.898438 19.84375 34.898438 C 17.871094 34.898438 16.246094 33.472656 15.929688 31.589844 Z M 15.929688 31.589844 "/>
<path style="fill:none;stroke-width:3;stroke-linecap:round;stroke-linejoin:round;stroke:rgb(12.941177%,12.941177%,12.941177%);stroke-opacity:1;stroke-miterlimit:4;" d="M 254.006994 -64.160841 C 271.53657 -64.160841 285.753962 -49.943449 285.753962 -32.413873 C 285.753962 -14.884297 271.53657 -0.666905 254.006994 -0.666905 C 236.477418 -0.666905 222.260025 -14.884297 222.260025 -32.413873 C 222.260025 -49.943449 236.477418 -64.160841 254.006994 -64.160841 Z M 254.006994 -64.160841 " transform="matrix(0.125012,0,0,-0.125012,0,26.877566)"/>
<path style="fill:none;stroke-width:3;stroke-linecap:round;stroke-linejoin:round;stroke:rgb(12.941177%,12.941177%,12.941177%);stroke-opacity:1;stroke-miterlimit:4;" d="M 349.247898 -64.160841 C 366.777475 -64.160841 380.994867 -49.943449 380.994867 -32.413873 C 380.994867 -14.884297 366.777475 -0.666905 349.247898 -0.666905 C 331.718322 -0.666905 317.50093 -14.884297 317.50093 -32.413873 C 317.50093 -49.943449 331.718322 -64.160841 349.247898 -64.160841 Z M 349.247898 -64.160841 " transform="matrix(0.125012,0,0,-0.125012,0,26.877566)"/>
<path style="fill:none;stroke-width:3;stroke-linecap:round;stroke-linejoin:round;stroke:rgb(12.941177%,12.941177%,12.941177%);stroke-opacity:1;stroke-miterlimit:4;" d="M 158.734842 -64.160841 C 176.295665 -64.160841 190.513057 -49.943449 190.513057 -32.413873 C 190.513057 -14.884297 176.295665 -0.666905 158.734842 -0.666905 C 141.205266 -0.666905 126.987873 -14.884297 126.987873 -32.413873 C 126.987873 -49.943449 141.205266 -64.160841 158.734842 -64.160841 Z M 158.734842 -64.160841 " transform="matrix(0.125012,0,0,-0.125012,0,26.877566)"/>
</g>
</svg>
